apps/16/system-software-install.svg

<?xml version="1.0" encoding="UTF-8" standalone="no"?>
<svg
   xmlns:dc="http://purl.org/dc/elements/1.1/"
   xmlns:cc="http://creativecommons.org/ns#"
   xmlns:rdf="http://www.w3.org/1999/02/22-rdf-syntax-ns#"
   xmlns:svg="http://www.w3.org/2000/svg"
   xmlns="http://www.w3.org/2000/svg"
   xmlns:xlink="http://www.w3.org/1999/xlink"
   version="1.1"
   width="16"
   height="16"
   id="svg7357">
  <defs
     id="defs7359">
    <linearGradient
       x1="23.99999"
       y1="4.999989"
       x2="23.99999"
       y2="43"
       id="linearGradient4224"
       xlink:href="#linearGradient3924-4-8"
       gradientUnits="userSpaceOnUse"
       gradientTransform="matrix(0.2972973,0,0,0.2972973,0.86486973,0.86486734)" />
    <linearGradient
       id="linearGradient3924-4-8">
      <stop
         id="stop3926-0-4"
         style="stop-color:#ffffff;stop-opacity:1"
         offset="0" />
      <stop
         id="stop3928-6-8"
         style="stop-color:#ffffff;stop-opacity:0.23529412"
         offset="0.06316455" />
      <stop
         id="stop3930-2-1"
         style="stop-color:#ffffff;stop-opacity:0.15686275"
         offset="0.95056331" />
      <stop
         id="stop3932-9-0"
         style="stop-color:#ffffff;stop-opacity:0.39215687"
         offset="1" />
    </linearGradient>
    <radialGradient
       gradientTransform="matrix(0,1.972873,-3.8866533,0,46.976844,-18.153909)"
       gradientUnits="userSpaceOnUse"
       xlink:href="#linearGradient2867-449-88-871-390-598-476-591-434-148-57-177-3-8"
       id="radialGradient5521-1"
       fy="9.9571075"
       fx="7.3198657"
       r="12.671875"
       cy="9.9571075"
       cx="7.8500957" />
    <linearGradient
       id="linearGradient2867-449-88-871-390-598-476-591-434-148-57-177-3-8">
      <stop
         id="stop3750-8-9"
         style="stop-color:#90dbec;stop-opacity:1"
         offset="0" />
      <stop
         id="stop3752-3-2"
         style="stop-color:#42baea;stop-opacity:1"
         offset="0.26238" />
      <stop
         id="stop3754-7-2"
         style="stop-color:#3689e6;stop-opacity:1"
         offset="0.704952" />
      <stop
         id="stop3756-9-3"
         style="stop-color:#2b63a0;stop-opacity:1"
         offset="1" />
    </linearGradient>
  </defs>
  <metadata
     id="metadata7362">
    <rdf:RDF>
      <cc:Work
         rdf:about="">
        <dc:format>image/svg+xml</dc:format>
        <dc:type
           rdf:resource="http://purl.org/dc/dcmitype/StillImage" />
        <dc:title />
      </cc:Work>
    </rdf:RDF>
  </metadata>
  <rect
     style="color:#000000;display:inline;overflow:visible;visibility:visible;fill:url(#radialGradient5521-1);fill-opacity:1;fill-rule:nonzero;stroke:none;stroke-width:0.99999994;marker:none;enable-background:accumulate;clip-rule:nonzero;opacity:1;isolation:auto;mix-blend-mode:normal;color-interpolation:sRGB;color-interpolation-filters:linearRGB;solid-color:#000000;solid-opacity:1;stroke-linecap:butt;stroke-linejoin:miter;stroke-miterlimit:4;stroke-dasharray:none;stroke-dashoffset:0;stroke-opacity:1;filter-blend-mode:normal;filter-gaussianBlur-deviation:0;color-rendering:auto;image-rendering:auto;shape-rendering:auto;text-rendering:auto"
     id="rect5505-21-2"
     y="1.4999971"
     x="1.5"
     ry="1"
     rx="1"
     height="13.000003"
     width="13.000003" />
  <rect
     style="color:#000000;display:inline;overflow:visible;visibility:visible;opacity:0.4;fill:#000000;stroke:#004264;stroke-width:1;stroke-linecap:round;stroke-linejoin:round;stroke-miterlimit:4;stroke-dasharray:none;stroke-dashoffset:0;stroke-opacity:1;marker:none;enable-background:accumulate;clip-rule:nonzero;isolation:auto;mix-blend-mode:normal;color-interpolation:sRGB;color-interpolation-filters:linearRGB;solid-color:#000000;solid-opacity:1;fill-opacity:0;fill-rule:nonzero;filter-blend-mode:normal;filter-gaussianBlur-deviation:0;color-rendering:auto;image-rendering:auto;shape-rendering:auto;text-rendering:auto"
     id="rect5505-21-2-8"
     y="1.4999971"
     x="1.5"
     ry="1"
     rx="1"
     height="13.000003"
     width="13.000003" />
  <path
     style="color:#000000;clip-rule:nonzero;display:inline;overflow:visible;visibility:visible;opacity:0.05;isolation:auto;mix-blend-mode:normal;color-interpolation:sRGB;color-interpolation-filters:linearRGB;solid-color:#000000;solid-opacity:1;fill:#000000;fill-opacity:1;fill-rule:nonzero;stroke:none;stroke-width:1.41025639;stroke-linecap:butt;stroke-linejoin:miter;stroke-miterlimit:4;stroke-dasharray:none;stroke-dashoffset:0;stroke-opacity:1;marker:none;color-rendering:auto;image-rendering:auto;shape-rendering:auto;text-rendering:auto;enable-background:accumulate;filter-blend-mode:normal;filter-gaussianBlur-deviation:0"
     id="path3543"
     d="M 7,3.9785156 A 1.021909,1.021909 0 0 0 5.9785156,5 l 0,2.9785156 -1.9785156,0 A 1.021909,1.021909 0 0 0 3.2773438,9.7226562 l 4,3.9999998 a 1.021909,1.021909 0 0 0 1.4453124,0 L 12.722656,9.7226562 A 1.021909,1.021909 0 0 0 12,7.9785156 l -1.978516,0 0,-2.9785156 A 1.021909,1.021909 0 0 0 9,3.9785156 l -2,0 z" />
  <path
     d="m 7,3.999998 0,5.0000016 -3,0 L 8.0000011,13 12,8.9999996 l -3,0 0,-5.0000016 z"
     id="rect3005-5-7"
     style="color:#000000;clip-rule:nonzero;display:inline;overflow:visible;visibility:visible;opacity:0.15;isolation:auto;mix-blend-mode:normal;color-interpolation:sRGB;color-interpolation-filters:linearRGB;solid-color:#000000;solid-opacity:1;fill:#000000;fill-opacity:1;fill-rule:nonzero;stroke:none;stroke-width:1;stroke-linecap:butt;stroke-linejoin:miter;stroke-miterlimit:4;stroke-dasharray:none;stroke-dashoffset:0;stroke-opacity:1;marker:none;color-rendering:auto;image-rendering:auto;shape-rendering:auto;text-rendering:auto;enable-background:accumulate" />
  <path
     d="M 7,4 7,8 4,8 8.0000011,12 12,8 9,8 9,4 Z"
     id="rect3005-5"
     style="color:#000000;display:inline;overflow:visible;visibility:visible;fill:#ffffff;fill-opacity:1;fill-rule:nonzero;stroke:none;stroke-width:1;marker:none;enable-background:accumulate" />
  <rect
     style="opacity:0.5;fill:none;stroke:url(#linearGradient4224);stroke-width:1;stroke-linecap:round;stroke-linejoin:round;stroke-miterlimit:4;stroke-dasharray:none;stroke-dashoffset:0;stroke-opacity:1"
     id="rect6741-0-3"
     y="2.4999971"
     x="2.5"
     height="11"
     width="11" />
</svg>

<svg xmlns="http://www.w3.org/2000/svg" xmlns:xlink="http://www.w3.org/1999/xlink" viewBox="0 0 16 16"><defs><linearGradient x1="24" y1="5" x2="24" y2="43" id="d" xlink:href="#a" gradientUnits="userSpaceOnUse" gradientTransform="translate(.865 .865) scale(.2973)"/><linearGradient id="a"><stop offset="0" stop-color="#fff"/><stop offset=".063" stop-color="#fff" stop-opacity=".235"/><stop offset=".951" stop-color="#fff" stop-opacity=".157"/><stop offset="1" stop-color="#fff" stop-opacity=".392"/></linearGradient><radialGradient gradientTransform="matrix(0 1.97287 -3.88665 0 46.977 -18.154)" gradientUnits="userSpaceOnUse" xlink:href="#b" id="c" fy="9.957" fx="7.32" r="12.672" cy="9.957" cx="7.85"/><linearGradient id="b"><stop offset="0" stop-color="#90dbec"/><stop offset=".262" stop-color="#42baea"/><stop offset=".705" stop-color="#3689e6"/><stop offset="1" stop-color="#2b63a0"/></linearGradient></defs><rect style="isolation:auto;mix-blend-mode:normal;filter-blend-mode:normal;filter-gaussianBlur-deviation:0" y="1.5" x="1.5" ry="1" rx="1" height="13" width="13" color="#000" overflow="visible" fill="url(#c)"/><rect style="isolation:auto;mix-blend-mode:normal;filter-blend-mode:normal;filter-gaussianBlur-deviation:0" y="1.5" x="1.5" ry="1" rx="1" height="13" width="13" color="#000" overflow="visible" opacity=".4" stroke="#004264" stroke-linecap="round" stroke-linejoin="round" fill="none"/><path style="isolation:auto;mix-blend-mode:normal;filter-blend-mode:normal;filter-gaussianBlur-deviation:0" d="M7 3.98A1.022 1.022 0 0 0 5.98 5v2.98H4a1.022 1.022 0 0 0-.723 1.743l4 4a1.022 1.022 0 0 0 1.446 0l4-4A1.022 1.022 0 0 0 12 7.98h-1.98V5A1.022 1.022 0 0 0 9 3.98H7z" color="#000" overflow="visible" opacity=".05"/><path d="M7 4v5H4l4 4 4-4H9V4z" style="isolation:auto;mix-blend-mode:normal" color="#000" overflow="visible" opacity=".15"/><path d="M7 4v4H4l4 4 4-4H9V4z" color="#000" overflow="visible" fill="#fff"/><path opacity=".5" fill="none" stroke="url(#d)" stroke-linecap="round" stroke-linejoin="round" d="M2.5 2.5h11v11h-11z"/></svg>
